src/pos-icons/tools.svg

<svg height="24" viewBox="0 0 24 24" width="24" xmlns="http://www.w3.org/2000/svg"><path d="m21.71 20.29-1.42 1.42a1 1 0 0 1 -1.41 0l-11.88-11.86a3.81 3.81 0 0 1 -1 .15 4 4 0 0 1 -3.78-5.3l2.54 2.54.53-.53 1.42-1.42.53-.53-2.54-2.54a4 4 0 0 1 5.3 3.78 3.81 3.81 0 0 1 -.15 1l11.86 11.88a1 1 0 0 1 0 1.41m-19.42-1.41a1 1 0 0 0 0 1.41l1.42 1.42a1 1 0 0 0 1.41 0l5.47-5.46-2.83-2.83m12.24-11.42-4 2v2l-2.17 2.17 2 2 2.17-2.17h2l2-4z"/></svg>

<?xml version="1.0" encoding="UTF-8"?><!DOCTYPE svg PUBLIC "-//W3C//DTD SVG 1.1//EN" "http://www.w3.org/Graphics/SVG/1.1/DTD/svg11.dtd"><svg xmlns="http://www.w3.org/2000/svg" xmlns:xlink="http://www.w3.org/1999/xlink" version="1.1" id="mdi-tools" width="24" height="24" viewBox="0 0 24 24"><path d="M21.71 20.29L20.29 21.71A1 1 0 0 1 18.88 21.71L7 9.85A3.81 3.81 0 0 1 6 10A4 4 0 0 1 2.22 4.7L4.76 7.24L5.29 6.71L6.71 5.29L7.24 4.76L4.7 2.22A4 4 0 0 1 10 6A3.81 3.81 0 0 1 9.85 7L21.71 18.88A1 1 0 0 1 21.71 20.29M2.29 18.88A1 1 0 0 0 2.29 20.29L3.71 21.71A1 1 0 0 0 5.12 21.71L10.59 16.25L7.76 13.42M20 2L16 4V6L13.83 8.17L15.83 10.17L18 8H20L22 4Z" /></svg>
